!!!OTL: Mei Voda sei Haeusl is mit Haberstroh deckt, hulldri hulla di hulla, mit Haberstroh deckt.
!!!ARE: Europa, Mitteleuropa, Deutschland, Niederbayern
!!!SCT: D0079
!!!YEM: Copyright 1995, estate of Helmut Schaffrath.
**kern
*ICvox
*Ivox
*M3/4
*k[f#]
*G:
{8b
8cc
=1
4dd
4dd
4dd
=2
4b
4b}
{8a
8b
=3
4dd
4dd
4dd
=4
4cc
4r}
{8a
8b
=5
4cc
4.cc
8b
=6
4a
4a}
{4a
=7
4dd
4dd
4cc
=8
4b
4r}
==
!!!AGN: Ehestands - Lied
!! Viertonskala (Grundton fehlt - vermutlich mit Unterstimme gesungen)
!!!ONB: ESAC (Essen Associative Code) Database: DVA
!!!AMT: simple triple
!!!AIN: vox
!!!EED: Helmut Schaffrath
!!!EEV: 1.0
*-
